Obsidian-SemiLight/actions/16s/mail-mark-unread-new.svg

<svg viewBox="0 0 16 16" xmlns="http://www.w3.org/2000/svg"><path d="m1 2v12h8v-1h-6.34375l3.9863281-4.6503906 1.3574219 1.3574218c-.013148-.0236699 6-6 6-6v4.2929688h1v-6zm1.7070312 1h10.5859378l-5.292969 5.2929688zm-.7070312.7070312 3.9335938 3.9335938-3.9335938 4.589844zm10 4.2929688-.574219 1.6132812-1.5468748-.734375.7343748 1.5468748-1.613281.574219 1.613281.574219-.7343748 1.546875 1.5468748-.734375.574219 1.613281.574219-1.613281 1.546875.734375-.734375-1.546875 1.613281-.574219-1.613281-.574219.734375-1.5468748-1.546875.734375z" fill="#4d4d4d"/></svg>

<svg xmlns="http://www.w3.org/2000/svg" viewBox="0 0 16 16">
  <defs id="defs3051">
    <style type="text/css" id="current-color-scheme">
      .ColorScheme-Text {
        color:#4d4d4d;
      }
      </style>
  </defs>
 <path style="fill:currentColor;fill-opacity:1;stroke:none" 
     d="M 1 2 L 1 14 L 9 14 L 9 13 L 2.65625 13 L 6.6425781 8.3496094 L 8 9.7070312 C 7.986852 9.6833613 14 3.7070312 14 3.7070312 L 14 8 L 15 8 L 15 2 L 1 2 z M 2.7070312 3 L 13.292969 3 L 8 8.2929688 L 2.7070312 3 z M 2 3.7070312 L 5.9335938 7.640625 L 2 12.230469 L 2 3.7070312 z M 12 8 L 11.425781 9.6132812 L 9.8789062 8.8789062 L 10.613281 10.425781 L 9 11 L 10.613281 11.574219 L 9.8789062 13.121094 L 11.425781 12.386719 L 12 14 L 12.574219 12.386719 L 14.121094 13.121094 L 13.386719 11.574219 L 15 11 L 13.386719 10.425781 L 14.121094 8.8789062 L 12.574219 9.6132812 L 12 8 z "
     class="ColorScheme-Text"
     />
</svg>
